Default.style/cafe.svg

<?xml version="1.0" encoding="UTF-8" standalone="no"?>
<svg width="29px" height="32px" viewBox="0 0 29 32" version="1.1" xmlns="http://www.w3.org/2000/svg" xmlns:xlink="http://www.w3.org/1999/xlink" xmlns:sketch="http://www.bohemiancoding.com/sketch/ns">
    <!-- Generator: Sketch 3.2.2 (9983) - http://www.bohemiancoding.com/sketch -->
    <title>cafe</title>
    <desc>Created with Sketch.</desc>
    <defs></defs>
    <g id="p" stroke="none" stroke-width="1" fill="none" fill-rule="evenodd" sketch:type="MSPage">
        <g id="cafe" sketch:type="MSLayerGroup" fill="#888888">
            <path d="M23.865,24.937 C23.01,26.689 21.732,28.119 20.176,29 L28,29 L28,30 C28,31.104 27.104,32 26,32 L2,32 C0.896,32 0,31.104 0,30 L0,29 L7.824,29 C4.972,27.383 3,23.967 3,20 L3,14 L25,14 L25,16.051 C27.246,16.303 29,18.186 29,20.5 C29,23.944 25.18,24.765 23.865,24.937 L23.865,24.937 Z M25.0015505,18.163222 C25.0425115,18.4864983 25.0015505,19.2148097 25.0015505,20.5126137 C25.0015505,21.8104176 25.011541,21.9222487 25.0015505,22.8620054 C24.9955562,23.3816908 27.0306206,22.3977656 26.9996501,20.5126137 C26.9946548,18.3342577 24.9356132,17.6472956 25.0015505,18.163222 L25.0015505,18.163222 Z M20.1691976,5.75124875 C20.9581108,7.82617383 21.0488707,9.52647353 20.3746542,11 L18.4716879,10.4385614 C18.9723635,9.31568432 18.896564,7.97402597 18.2223474,6.1988012 C17.5680781,4.47952048 18.5095876,3.28471528 19.0920469,2 L21,2.56243756 C20.5591661,3.54745255 19.6515669,4.3966034 20.1691976,5.75124875 L20.1691976,5.75124875 Z M14.3748318,12 L12.4714088,11.3136863 C12.9729393,9.94105894 12.8981584,8.3016983 12.2221392,6.13086913 C11.5680557,4.02997003 12.5102949,1.57042957 13.0925888,0 L15,0.688311688 C14.5592913,1.89210789 13.6529469,3.92907093 14.1694336,5.58541459 C14.9581227,8.12187812 15.0488568,10.1998002 14.3748318,12 Z M8.16943358,5.75124875 C8.9581227,7.82617383 9.04785977,9.52647353 8.37483176,11 L6.47140884,10.4385614 C6.97293934,9.31568432 6.89716137,7.97402597 6.2221392,6.1988012 C5.56805568,4.47952048 6.5102949,3.28471528 7.09258876,2 L9,2.56243756 C8.55929129,3.54745255 7.6529469,4.3966034 8.16943358,5.75124875 L8.16943358,5.75124875 Z" id="Shape" sketch:type="MSShapeGroup"></path>
        </g>
    </g>
</svg>

<svg width="29" height="32" xmlns="http://www.w3.org/2000/svg"><path d="M23.865 24.937c-.855 1.752-2.133 3.182-3.689 4.063H28v1a2 2 0 0 1-2 2H2a2 2 0 0 1-2-2v-1h7.824C4.972 27.383 3 23.967 3 20v-6h22v2.051c2.246.252 4 2.135 4 4.449 0 3.444-3.82 4.265-5.135 4.437Zm1.137-6.774c.04.323 0 1.052 0 2.35 0 1.297.01 1.41 0 2.349-.006.52 2.029-.464 1.998-2.35-.005-2.178-2.064-2.865-1.998-2.349ZM20.169 5.751c.79 2.075.88 3.775.206 5.249l-1.903-.561c.5-1.123.425-2.465-.25-4.24-.654-1.72.288-2.914.87-4.199L21 2.562c-.44.985-1.348 1.835-.83 3.19ZM14.375 12l-1.904-.686c.502-1.373.427-3.012-.249-5.183-.654-2.101.288-4.56.87-6.131L15 .688c-.44 1.204-1.347 3.241-.83 4.897.788 2.537.879 4.615.205 6.415ZM8.169 5.751c.79 2.075.879 3.775.206 5.249l-1.904-.561c.502-1.123.426-2.465-.249-4.24-.654-1.72.288-2.914.87-4.199L9 2.562c-.44.985-1.347 1.835-.83 3.19Z" fill="#888" fill-rule="evenodd"/></svg>
